X:1
T:Title
%%score { ( 1 3 ) | ( 2 4 ) }
L:1/8
M:4/4
K:F
V:1 treble nm="Grand Piano"
V:3 treble 
V:2 bass 
V:4 bass 
V:1
 z4 z2[Q:1/4=100] A2 | A2 c2 F2 [DFB]2 | [CFA]4 [CEG]2 [B,EG]2 | [A,F]2 [DF]2 [DFG]2 [CEG]2 | %4
[M:3/4] A6 |[M:1/4] A2 |[M:4/4] A2 c2 F2 [CEG]2 | A4 z4 | [CGc]2 c2 e2 d2 |[M:3/4] [Ec]6 | %10
[M:1/4] [EG]2 |[M:4/4] [EG]2 [DG]2 [^CEG]2 .[A,CA]2 | z4 z2 G2 | A2 =B2 c2 d2 |[M:3/4] e6 | %15
[M:1/4] e2 |[M:4/4] f2 c2 B2 A2 | z4 [Ac]2 z2 | [CFA]2 [A,C]2 [B,EG]3 [A,F] |[M:3/4] [A,F]6 |] %20
V:2
 z4 z2 [F,CF]2 | [F,CF]2 [E,G,C]2 [D,A,D]2 B,,2 | C,4 C,2 C,2 | D,2 C,2 B,,2 C,2 |[M:3/4] [F,CF]6 | %5
[M:1/4] [F,CF]2 |[M:4/4] [F,CF]2 [E,G,C]2 [D,A,D]2 C,2 | F,2 E,2 D,2 G,F, | %8
 E,2[K:treble] [A,CE]2 [G,CG]2 [G,=B,F]2 |[M:3/4][K:bass] [C,C]6 |[M:1/4] [C,C]2 | %11
[M:4/4] [C,C]2 B,,2 A,,2 z G | D,4 D,2 z B, | [F,A,C]2 [E,_A,E]2[K:treble] [=A,E]2 [G,=B,G]2 | %14
[M:3/4] [CG]6 |[M:1/4] [CG]2 |[M:4/4] [A,CF]2 [A,CF]2[K:bass] [G,CE]2 [F,CF]2 | %17
 B,,2 G,,2 A,,2 B,,2 | C,2 C,2 C,3 F, |[M:3/4] F,6 |] %20
V:3
 x8 | x8 | x8 | x8 |[M:3/4] x6 |[M:1/4] x2 |[M:4/4] x8 | [CF]2 [^CG]2 [DFA]2 [DG=B]2 | x8 | %9
[M:3/4] x6 |[M:1/4] x2 |[M:4/4] x8 | [A,DF]4 [A,DF]2 [CE]D | x8 |[M:3/4] x6 |[M:1/4] z B, | %16
[M:4/4] x8 | [DG]2 [Bd]2 D2- [DGB]2 | x8 |[M:3/4] x6 |] %20
V:4
 x8 | x8 | x8 | x8 |[M:3/4] x6 |[M:1/4] x2 |[M:4/4] x8 | x8 | x2[K:treble] x6 |[M:3/4][K:bass] x6 | %10
[M:1/4] x2 |[M:4/4] z4 z2 A,,2 | z4 z2 C,2 | x4[K:treble] x4 |[M:3/4] x6 |[M:1/4] x2 | %16
[M:4/4] x4[K:bass] x4 | x8 | x8 |[M:3/4] x6 |] %20

